client/public/assets/icons/standard/planogram.svg

<?xml version="1.0"?><svg xmlns="http://www.w3.org/2000/svg" width="100" height="100" viewBox="0 0 100 100"><title></title><desc></desc><g fill="#fff"><path d="m77.4 71.5h-3.3v-17.9c0-0.9-0.8-1.7-1.7-1.7h-18.7c-0.9 0-1.7 0.8-1.7 1.7v17.8h-5v-17.8c0-0.9-0.8-1.7-1.7-1.7h-18.7c-0.9 0-1.7 0.8-1.7 1.7v17.8h-3.3c-1.1 0-2 0.9-2 2v4c0 1.1 0.9 2 2 2h55.7c1.1 0 2-0.9 2-2v-4c0.1-1.1-0.8-1.9-1.9-1.9z m-20.9-15h13v4.5h-13v-4.5z m-27.1 0h13v4.5h-13v-4.5z m48-17.5h-3.3v-17.9c0-0.9-0.8-1.7-1.7-1.7h-18.7c-0.9 0-1.7 0.8-1.7 1.7v17.9h-5v-17.9c0-0.9-0.8-1.7-1.7-1.7h-18.7c-0.9 0-1.7 0.8-1.7 1.7v17.9h-3.3c-1.1 0-2 1-2 2v4c0 1.1 0.9 2 2 2h55.7c1.1 0 2-0.9 2-2v-4c0.1-1.2-0.8-2-1.9-2z m-20.9-15h13v4.5h-13v-4.5z m-27.1 0h13v4.5h-13v-4.5z"></path></g></svg>

<?xml version="1.0" encoding="utf-8"?>
<!-- Generator: Adobe Illustrator 21.1.0, SVG Export Plug-In . SVG Version: 6.00 Build 0)  -->
<svg version="1.1" id="Layer_1" xmlns="http://www.w3.org/2000/svg" xmlns:xlink="http://www.w3.org/1999/xlink" x="0px" y="0px"
	 width="100px" height="100px" viewBox="0 0 100 100" enable-background="new 0 0 100 100" xml:space="preserve">
<title></title>
<desc></desc>
<g>
	<path fill="#FFFFFF" d="M77.4,71.5h-3.3V53.6c0-0.9-0.8-1.7-1.7-1.7H53.7c-0.9,0-1.7,0.8-1.7,1.7v17.8h-5V53.6
		c0-0.9-0.8-1.7-1.7-1.7H26.6c-0.9,0-1.7,0.8-1.7,1.7v17.8h-3.3c-1.1,0-2,0.9-2,2v4c0,1.1,0.9,2,2,2h55.7c1.1,0,2-0.9,2-2v-4
		C79.4,72.3,78.5,71.5,77.4,71.5z M56.5,56.5h13V61h-13V56.5z M29.4,56.5h13V61h-13V56.5z"/>
	<path fill="#FFFFFF" d="M77.4,39h-3.3V21.1c0-0.9-0.8-1.7-1.7-1.7H53.7c-0.9,0-1.7,0.8-1.7,1.7V39h-5V21.1c0-0.9-0.8-1.7-1.7-1.7
		H26.6c-0.9,0-1.7,0.8-1.7,1.7V39h-3.3c-1.1,0-2,1-2,2v4c0,1.1,0.9,2,2,2h55.7c1.1,0,2-0.9,2-2v-4C79.4,39.8,78.5,39,77.4,39z
		 M56.5,24h13v4.5h-13V24z M29.4,24h13v4.5h-13V24z"/>
</g>
</svg>
